ES1T1/13/aimg/b9.svg

<svg clip-rule="evenodd" fill-rule="evenodd" stroke-linejoin="round" stroke-miterlimit="2" viewBox="0 0 185 181" xmlns="http://www.w3.org/2000/svg" xmlns:xlink="http://www.w3.org/1999/xlink"><linearGradient id="a" gradientTransform="matrix(1 0 0 -1 0 -.000027)" gradientUnits="userSpaceOnUse" x1="0" x2="1" y1="0" y2="0"><stop offset="0" stop-color="#fcb016"/><stop offset="1" stop-color="#f6861f"/></linearGradient><linearGradient id="b" gradientTransform="matrix(1 0 0 -1 0 -.000027)" gradientUnits="userSpaceOnUse" x1="0" x2="1" y1="0" y2="0"><stop offset="0" stop-color="#ffde00"/><stop offset="1" stop-color="#fec12a"/></linearGradient><linearGradient id="c" gradientTransform="matrix(1 0 0 -1 0 -.000027)" gradientUnits="userSpaceOnUse" x1="0" x2="1" y1="0" y2="0"><stop offset="0" stop-color="#fff185"/><stop offset="1" stop-color="#fcb016"/></linearGradient><linearGradient id="d" gradientTransform="matrix(1 0 0 -1 0 .000011)" gradientUnits="userSpaceOnUse" x1="0" x2="1" y1="0" y2="0"><stop offset="0" stop-color="#febf24"/><stop offset="1" stop-color="#f6861f"/></linearGradient><linearGradient id="e" gradientTransform="matrix(1 0 0 -1 0 .000011)" gradientUnits="userSpaceOnUse" x1="0" x2="1" y1="0" y2="0"><stop offset="0" stop-color="#d6e1e2"/><stop offset="1" stop-color="#a8bfbd"/></linearGradient><linearGradient id="f" gradientTransform="matrix(1 0 0 -1 0 .000034)" gradientUnits="userSpaceOnUse" x1="0" x2="1" y1="0" y2="0"><stop offset="0" stop-color="#fff"/><stop offset="1" stop-color="#dde6e6"/></linearGradient><g fill-rule="nonzero"><path d="m.468-.538c.328 0 .532.221.532.577 0 .303-.197.499-.502.499-.307 0-.498-.218-.498-.568 0-.308.184-.508.468-.508zm.003.484c-.038 0-.061.011-.061.067 0 .032.008.037.035.037.037 0 .06-.011.06-.066 0-.035-.01-.038-.034-.038z" fill="url(#a)" transform="matrix(0 170.887 170.887 0 92.37 9.43)"/><path d="m.468-.538c.328 0 .532.221.532.577 0 .303-.197.499-.502.499-.307 0-.498-.218-.498-.568 0-.309.184-.508.468-.508zm.003.484c-.038 0-.061.011-.061.067 0 .032.008.037.035.037.037 0 .06-.011.06-.066 0-.035-.01-.038-.034-.038z" fill="url(#b)" transform="matrix(0 170.869 170.869 0 92.37 .46)"/><path d="m.468-.538c.328 0 .532.221.532.577 0 .303-.197.499-.502.499-.307 0-.498-.217-.498-.568 0-.309.183-.508.468-.508zm.002.478c-.04 0-.066.013-.066.073 0 .037.012.043.04.043.04 0 .067-.012.067-.072 0-.038-.013-.044-.041-.044z" fill="url(#c)" transform="matrix(0 169.077 169.077 0 92.36 .46)"/><path d="m.458-.549c.34 0 .542.223.542.599 0 .314-.186.499-.503.499-.312 0-.497-.218-.497-.588 0-.32.171-.51.458-.51zm.004.328c-.139 0-.229.089-.229.238 0 .125.078.198.195.198.139 0 .229-.088.229-.236 0-.125-.078-.2-.195-.2z" fill="url(#d)" transform="matrix(0 131.365 131.365 0 92.36 23.8)"/><g fill="url(#e)"><path d="m.458-.549c.34 0 .542.223.542.599 0 .314-.187.499-.503.499-.312 0-.497-.218-.497-.588 0-.32.171-.51.458-.51zm.004.328c-.139 0-.229.089-.229.238 0 .125.078.198.195.198.139 0 .229-.088.229-.236 0-.125-.078-.2-.195-.2z" transform="matrix(0 131.371 131.371 0 92.36 21.1)"/><path d="m.458-.549c.34 0 .542.223.542.599 0 .314-.186.499-.503.499-.312 0-.497-.218-.497-.588 0-.32.171-.51.458-.51zm.004.328c-.139 0-.229.089-.229.238 0 .125.078.198.195.198.139 0 .229-.088.229-.236 0-.125-.078-.2-.195-.2z" transform="matrix(0 131.378 131.378 0 92.36 20.19)"/><path d="m.458-.549c.34 0 .542.223.542.599 0 .314-.186.499-.503.499-.312 0-.497-.218-.497-.588 0-.32.171-.51.458-.51zm.004.328c-.139 0-.229.089-.229.238 0 .125.078.198.195.198.139 0 .229-.088.229-.236 0-.125-.078-.2-.195-.2z" transform="matrix(0 131.378 131.378 0 92.36 19.3)"/><path d="m.458-.549c.34 0 .542.223.542.599 0 .314-.186.499-.503.499-.312 0-.497-.218-.497-.588 0-.32.171-.51.458-.51zm.004.328c-.139 0-.229.089-.229.238 0 .125.078.198.195.198.139 0 .229-.088.229-.236 0-.125-.078-.2-.195-.2z" transform="matrix(0 131.366 131.366 0 92.36 18.41)"/><path d="m.458-.549c.34 0 .542.223.542.599 0 .314-.186.499-.503.499-.312 0-.497-.218-.497-.588 0-.32.171-.51.458-.51zm.004.328c-.139 0-.229.089-.229.238 0 .125.078.198.195.198.139 0 .229-.088.229-.236 0-.125-.078-.2-.195-.2z" transform="matrix(0 131.365 131.365 0 92.36 17.51)"/><path d="m.458-.549c.34 0 .542.223.542.599 0 .314-.186.499-.503.499-.312 0-.497-.218-.497-.588 0-.32.17-.51.458-.51zm.004.328c-.139 0-.229.089-.229.238 0 .125.078.198.195.198.139 0 .229-.088.229-.236 0-.125-.078-.2-.195-.2z" transform="matrix(0 131.366 131.366 0 92.36 16.62)"/><path d="m.458-.549c.34 0 .542.223.542.599 0 .314-.186.499-.503.499-.312 0-.497-.218-.497-.588 0-.32.17-.51.458-.51zm.004.328c-.139 0-.229.089-.229.238 0 .125.078.198.195.198.139 0 .229-.088.229-.236 0-.125-.078-.2-.195-.2z" transform="matrix(0 131.365 131.365 0 92.36 15.71)"/><path d="m.458-.549c.34 0 .542.223.542.599 0 .314-.186.499-.503.499-.312 0-.497-.218-.497-.588 0-.32.171-.51.458-.51zm.004.328c-.139 0-.229.089-.229.238 0 .125.078.198.195.198.139 0 .229-.088.229-.236 0-.125-.078-.2-.195-.2z" transform="matrix(0 131.366 131.366 0 92.36 14.82)"/><path d="m.458-.549c.34 0 .542.223.542.599 0 .314-.186.499-.503.499-.312 0-.497-.218-.497-.588 0-.32.171-.51.458-.51zm.004.328c-.139 0-.229.089-.229.238 0 .125.078.198.195.198.139 0 .229-.088.229-.236 0-.125-.078-.2-.195-.2z" transform="matrix(0 131.378 131.378 0 92.36 13.92)"/><path d="m.458-.549c.34 0 .542.223.542.599 0 .314-.186.499-.503.499-.312 0-.497-.218-.497-.588 0-.32.171-.51.458-.51zm.004.328c-.139 0-.229.089-.229.238 0 .125.078.198.195.198.139 0 .229-.088.229-.236 0-.125-.078-.2-.195-.2z" transform="matrix(0 131.372 131.372 0 92.36 13.02)"/></g><path d="m0-4.533c0-3.697-2.327-6.161-6.247-6.161-4.702 0-7.502 2.857-7.502 7.223 0 3.697 2.352 6.16 6.301 6.16 4.673 0 7.448-2.856 7.448-7.222m-24.109.949c0-9.069 5.992-14.447 16.102-14.447 11.645 0 18.535 5.824 18.535 15.681 0 9.969-5.851 15.848-15.738 15.848-11.872 0-18.899-6.356-18.899-17.082" fill="#fff" transform="matrix(4.16667 0 0 4.16667 120.66 88.15)"/><path d="m.456-.552c.346 0 .544.22.544.605 0 .317-.183.499-.503.499-.316 0-.497-.216-.497-.593 0-.325.166-.511.456-.511zm.004.29c-.165 0-.272.11-.272.28 0 .145.093.239.236.239.165 0 .271-.11.271-.279 0-.146-.092-.24-.235-.24z" fill="url(#f)" transform="matrix(0 124.173 124.173 0 92.36 18.41)"/></g></svg>

<?xml version="1.0" encoding="UTF-8" standalone="no"?>
<!DOCTYPE svg PUBLIC "-//W3C//DTD SVG 1.1//EN" "http://www.w3.org/Graphics/SVG/1.1/DTD/svg11.dtd">
<svg width="100%" height="100%" viewBox="0 0 185 181" version="1.1" xmlns="http://www.w3.org/2000/svg" xmlns:xlink="http://www.w3.org/1999/xlink" xml:space="preserve" xmlns:serif="http://www.serif.com/" style="fill-rule:evenodd;clip-rule:evenodd;stroke-linejoin:round;stroke-miterlimit:2;">
    <g transform="matrix(1,0,0,1,-1483,-1135)">
        <g>
            <g transform="matrix(0,170.887,170.887,0,1575.37,1144.43)">
                <path d="M0.468,-0.538C0.796,-0.538 1,-0.317 1,0.039C1,0.342 0.803,0.538 0.498,0.538C0.191,0.538 0,0.32 0,-0.03C0,-0.338 0.184,-0.538 0.468,-0.538ZM0.471,-0.054C0.433,-0.054 0.41,-0.043 0.41,0.013C0.41,0.045 0.418,0.05 0.445,0.05C0.482,0.05 0.505,0.039 0.505,-0.016C0.505,-0.051 0.495,-0.054 0.471,-0.054Z" style="fill:url(#_Linear1);fill-rule:nonzero;"/>
            </g>
            <g transform="matrix(0,170.869,170.869,0,1575.37,1135.46)">
                <path d="M0.468,-0.538C0.796,-0.538 1,-0.317 1,0.039C1,0.342 0.803,0.538 0.498,0.538C0.191,0.538 0,0.32 0,-0.03C0,-0.339 0.184,-0.538 0.468,-0.538ZM0.471,-0.054C0.433,-0.054 0.41,-0.043 0.41,0.013C0.41,0.045 0.418,0.05 0.445,0.05C0.482,0.05 0.505,0.039 0.505,-0.016C0.505,-0.051 0.495,-0.054 0.471,-0.054Z" style="fill:url(#_Linear2);fill-rule:nonzero;"/>
            </g>
            <g transform="matrix(0,169.077,169.077,0,1575.36,1135.46)">
                <path d="M0.468,-0.538C0.796,-0.538 1,-0.317 1,0.039C1,0.342 0.803,0.538 0.498,0.538C0.191,0.538 0,0.321 0,-0.03C0,-0.339 0.183,-0.538 0.468,-0.538ZM0.47,-0.06C0.43,-0.06 0.404,-0.047 0.404,0.013C0.404,0.05 0.416,0.056 0.444,0.056C0.484,0.056 0.511,0.044 0.511,-0.016C0.511,-0.054 0.498,-0.06 0.47,-0.06Z" style="fill:url(#_Linear3);fill-rule:nonzero;"/>
            </g>
            <g transform="matrix(0,131.365,131.365,0,1575.36,1158.8)">
                <path d="M0.458,-0.549C0.798,-0.549 1,-0.326 1,0.05C1,0.364 0.814,0.549 0.497,0.549C0.185,0.549 0,0.331 0,-0.039C0,-0.359 0.171,-0.549 0.458,-0.549ZM0.462,-0.221C0.323,-0.221 0.233,-0.132 0.233,0.017C0.233,0.142 0.311,0.215 0.428,0.215C0.567,0.215 0.657,0.127 0.657,-0.021C0.657,-0.146 0.579,-0.221 0.462,-0.221Z" style="fill:url(#_Linear4);fill-rule:nonzero;"/>
            </g>
            <g transform="matrix(0,131.371,131.371,0,1575.36,1156.1)">
                <path d="M0.458,-0.549C0.798,-0.549 1,-0.326 1,0.05C1,0.364 0.813,0.549 0.497,0.549C0.185,0.549 0,0.331 0,-0.039C0,-0.359 0.171,-0.549 0.458,-0.549ZM0.462,-0.221C0.323,-0.221 0.233,-0.132 0.233,0.017C0.233,0.142 0.311,0.215 0.428,0.215C0.567,0.215 0.657,0.127 0.657,-0.021C0.657,-0.146 0.579,-0.221 0.462,-0.221Z" style="fill:url(#_Linear5);fill-rule:nonzero;"/>
            </g>
            <g transform="matrix(0,131.378,131.378,0,1575.36,1155.19)">
                <path d="M0.458,-0.549C0.798,-0.549 1,-0.326 1,0.05C1,0.364 0.814,0.549 0.497,0.549C0.185,0.549 0,0.331 0,-0.039C0,-0.359 0.171,-0.549 0.458,-0.549ZM0.462,-0.221C0.323,-0.221 0.233,-0.132 0.233,0.017C0.233,0.142 0.311,0.215 0.428,0.215C0.567,0.215 0.657,0.127 0.657,-0.021C0.657,-0.146 0.579,-0.221 0.462,-0.221Z" style="fill:url(#_Linear6);fill-rule:nonzero;"/>
            </g>
            <g transform="matrix(0,131.378,131.378,0,1575.36,1154.3)">
                <path d="M0.458,-0.549C0.798,-0.549 1,-0.326 1,0.05C1,0.364 0.814,0.549 0.497,0.549C0.185,0.549 0,0.331 0,-0.039C0,-0.359 0.171,-0.549 0.458,-0.549ZM0.462,-0.221C0.323,-0.221 0.233,-0.132 0.233,0.017C0.233,0.142 0.311,0.215 0.428,0.215C0.567,0.215 0.657,0.127 0.657,-0.021C0.657,-0.146 0.579,-0.221 0.462,-0.221Z" style="fill:url(#_Linear7);fill-rule:nonzero;"/>
            </g>
            <g transform="matrix(0,131.366,131.366,0,1575.36,1153.41)">
                <path d="M0.458,-0.549C0.798,-0.549 1,-0.326 1,0.05C1,0.364 0.814,0.549 0.497,0.549C0.185,0.549 0,0.331 0,-0.039C0,-0.359 0.171,-0.549 0.458,-0.549ZM0.462,-0.221C0.323,-0.221 0.233,-0.132 0.233,0.017C0.233,0.142 0.311,0.215 0.428,0.215C0.567,0.215 0.657,0.127 0.657,-0.021C0.657,-0.146 0.579,-0.221 0.462,-0.221Z" style="fill:url(#_Linear8);fill-rule:nonzero;"/>
            </g>
            <g transform="matrix(0,131.365,131.365,0,1575.36,1152.51)">
                <path d="M0.458,-0.549C0.798,-0.549 1,-0.326 1,0.05C1,0.364 0.814,0.549 0.497,0.549C0.185,0.549 0,0.331 0,-0.039C0,-0.359 0.171,-0.549 0.458,-0.549ZM0.462,-0.221C0.323,-0.221 0.233,-0.132 0.233,0.017C0.233,0.142 0.311,0.215 0.428,0.215C0.567,0.215 0.657,0.127 0.657,-0.021C0.657,-0.146 0.579,-0.221 0.462,-0.221Z" style="fill:url(#_Linear9);fill-rule:nonzero;"/>
            </g>
            <g transform="matrix(0,131.366,131.366,0,1575.36,1151.62)">
                <path d="M0.458,-0.549C0.798,-0.549 1,-0.326 1,0.05C1,0.364 0.814,0.549 0.497,0.549C0.185,0.549 0,0.331 0,-0.039C0,-0.359 0.17,-0.549 0.458,-0.549ZM0.462,-0.221C0.323,-0.221 0.233,-0.132 0.233,0.017C0.233,0.142 0.311,0.215 0.428,0.215C0.567,0.215 0.657,0.127 0.657,-0.021C0.657,-0.146 0.579,-0.221 0.462,-0.221Z" style="fill:url(#_Linear10);fill-rule:nonzero;"/>
            </g>
            <g transform="matrix(0,131.365,131.365,0,1575.36,1150.71)">
                <path d="M0.458,-0.549C0.798,-0.549 1,-0.326 1,0.05C1,0.364 0.814,0.549 0.497,0.549C0.185,0.549 0,0.331 0,-0.039C0,-0.359 0.17,-0.549 0.458,-0.549ZM0.462,-0.221C0.323,-0.221 0.233,-0.132 0.233,0.017C0.233,0.142 0.311,0.215 0.428,0.215C0.567,0.215 0.657,0.127 0.657,-0.021C0.657,-0.146 0.579,-0.221 0.462,-0.221Z" style="fill:url(#_Linear11);fill-rule:nonzero;"/>
            </g>
            <g transform="matrix(0,131.366,131.366,0,1575.36,1149.82)">
                <path d="M0.458,-0.549C0.798,-0.549 1,-0.326 1,0.05C1,0.364 0.814,0.549 0.497,0.549C0.185,0.549 0,0.331 0,-0.039C0,-0.359 0.171,-0.549 0.458,-0.549ZM0.462,-0.221C0.323,-0.221 0.233,-0.132 0.233,0.017C0.233,0.142 0.311,0.215 0.428,0.215C0.567,0.215 0.657,0.127 0.657,-0.021C0.657,-0.146 0.579,-0.221 0.462,-0.221Z" style="fill:url(#_Linear12);fill-rule:nonzero;"/>
            </g>
            <g transform="matrix(0,131.378,131.378,0,1575.36,1148.92)">
                <path d="M0.458,-0.549C0.798,-0.549 1,-0.326 1,0.05C1,0.364 0.814,0.549 0.497,0.549C0.185,0.549 0,0.331 0,-0.039C0,-0.359 0.171,-0.549 0.458,-0.549ZM0.462,-0.221C0.323,-0.221 0.233,-0.132 0.233,0.017C0.233,0.142 0.311,0.215 0.428,0.215C0.567,0.215 0.657,0.127 0.657,-0.021C0.657,-0.146 0.579,-0.221 0.462,-0.221Z" style="fill:url(#_Linear13);fill-rule:nonzero;"/>
            </g>
            <g transform="matrix(0,131.372,131.372,0,1575.36,1148.02)">
                <path d="M0.458,-0.549C0.798,-0.549 1,-0.326 1,0.05C1,0.364 0.814,0.549 0.497,0.549C0.185,0.549 0,0.331 0,-0.039C0,-0.359 0.171,-0.549 0.458,-0.549ZM0.462,-0.221C0.323,-0.221 0.233,-0.132 0.233,0.017C0.233,0.142 0.311,0.215 0.428,0.215C0.567,0.215 0.657,0.127 0.657,-0.021C0.657,-0.146 0.579,-0.221 0.462,-0.221Z" style="fill:url(#_Linear14);fill-rule:nonzero;"/>
            </g>
            <g transform="matrix(4.16667,0,0,4.16667,1603.66,1223.15)">
                <path d="M0,-4.533C0,-8.23 -2.327,-10.694 -6.247,-10.694C-10.949,-10.694 -13.749,-7.837 -13.749,-3.471C-13.749,0.226 -11.397,2.689 -7.448,2.689C-2.775,2.689 0,-0.167 0,-4.533M-24.109,-3.584C-24.109,-12.653 -18.117,-18.031 -8.007,-18.031C3.638,-18.031 10.528,-12.207 10.528,-2.35C10.528,7.619 4.677,13.498 -5.21,13.498C-17.082,13.498 -24.109,7.142 -24.109,-3.584" style="fill:white;fill-rule:nonzero;"/>
            </g>
            <g transform="matrix(0,124.173,124.173,0,1575.36,1153.41)">
                <path d="M0.456,-0.552C0.802,-0.552 1,-0.332 1,0.053C1,0.37 0.817,0.552 0.497,0.552C0.181,0.552 0,0.336 0,-0.041C0,-0.366 0.166,-0.552 0.456,-0.552ZM0.46,-0.262C0.295,-0.262 0.188,-0.152 0.188,0.018C0.188,0.163 0.281,0.257 0.424,0.257C0.589,0.257 0.695,0.147 0.695,-0.022C0.695,-0.168 0.603,-0.262 0.46,-0.262Z" style="fill:url(#_Linear15);fill-rule:nonzero;"/>
            </g>
        </g>
    </g>
    <defs>
        <linearGradient id="_Linear1" x1="0" y1="0" x2="1" y2="0" gradientUnits="userSpaceOnUse" gradientTransform="matrix(1,0,0,-1,0,-2.73474e-05)"><stop offset="0" style="stop-color:rgb(252,176,22);stop-opacity:1"/><stop offset="1" style="stop-color:rgb(246,134,31);stop-opacity:1"/></linearGradient>
        <linearGradient id="_Linear2" x1="0" y1="0" x2="1" y2="0" gradientUnits="userSpaceOnUse" gradientTransform="matrix(1,0,0,-1,0,-2.73503e-05)"><stop offset="0" style="stop-color:rgb(255,222,0);stop-opacity:1"/><stop offset="1" style="stop-color:rgb(254,193,42);stop-opacity:1"/></linearGradient>
        <linearGradient id="_Linear3" x1="0" y1="0" x2="1" y2="0" gradientUnits="userSpaceOnUse" gradientTransform="matrix(1,0,0,-1,0,-2.731e-05)"><stop offset="0" style="stop-color:rgb(255,241,133);stop-opacity:1"/><stop offset="1" style="stop-color:rgb(252,176,22);stop-opacity:1"/></linearGradient>
        <linearGradient id="_Linear4" x1="0" y1="0" x2="1" y2="0" gradientUnits="userSpaceOnUse" gradientTransform="matrix(1,0,0,-1,0,1.12029e-05)"><stop offset="0" style="stop-color:rgb(254,191,36);stop-opacity:1"/><stop offset="1" style="stop-color:rgb(246,134,31);stop-opacity:1"/></linearGradient>
        <linearGradient id="_Linear5" x1="0" y1="0" x2="1" y2="0" gradientUnits="userSpaceOnUse" gradientTransform="matrix(1,0,0,-1,0,1.12023e-05)"><stop offset="0" style="stop-color:rgb(214,225,226);stop-opacity:1"/><stop offset="0" style="stop-color:rgb(214,225,226);stop-opacity:1"/><stop offset="1" style="stop-color:rgb(168,191,189);stop-opacity:1"/></linearGradient>
        <linearGradient id="_Linear6" x1="0" y1="0" x2="1" y2="0" gradientUnits="userSpaceOnUse" gradientTransform="matrix(1,0,0,-1,0,1.12018e-05)"><stop offset="0" style="stop-color:rgb(214,225,226);stop-opacity:1"/><stop offset="0" style="stop-color:rgb(214,225,226);stop-opacity:1"/><stop offset="1" style="stop-color:rgb(168,191,189);stop-opacity:1"/></linearGradient>
        <linearGradient id="_Linear7" x1="0" y1="0" x2="1" y2="0" gradientUnits="userSpaceOnUse" gradientTransform="matrix(1,0,0,-1,0,1.12018e-05)"><stop offset="0" style="stop-color:rgb(214,225,226);stop-opacity:1"/><stop offset="0" style="stop-color:rgb(214,225,226);stop-opacity:1"/><stop offset="1" style="stop-color:rgb(168,191,189);stop-opacity:1"/></linearGradient>
        <linearGradient id="_Linear8" x1="0" y1="0" x2="1" y2="0" gradientUnits="userSpaceOnUse" gradientTransform="matrix(1,0,0,-1,0,1.12028e-05)"><stop offset="0" style="stop-color:rgb(214,225,226);stop-opacity:1"/><stop offset="0" style="stop-color:rgb(214,225,226);stop-opacity:1"/><stop offset="1" style="stop-color:rgb(168,191,189);stop-opacity:1"/></linearGradient>
        <linearGradient id="_Linear9" x1="0" y1="0" x2="1" y2="0" gradientUnits="userSpaceOnUse" gradientTransform="matrix(1,0,0,-1,0,1.12029e-05)"><stop offset="0" style="stop-color:rgb(214,225,226);stop-opacity:1"/><stop offset="0" style="stop-color:rgb(214,225,226);stop-opacity:1"/><stop offset="1" style="stop-color:rgb(168,191,189);stop-opacity:1"/></linearGradient>
        <linearGradient id="_Linear10" x1="0" y1="0" x2="1" y2="0" gradientUnits="userSpaceOnUse" gradientTransform="matrix(1,0,0,-1,0,1.12028e-05)"><stop offset="0" style="stop-color:rgb(214,225,226);stop-opacity:1"/><stop offset="0" style="stop-color:rgb(214,225,226);stop-opacity:1"/><stop offset="1" style="stop-color:rgb(168,191,189);stop-opacity:1"/></linearGradient>
        <linearGradient id="_Linear11" x1="0" y1="0" x2="1" y2="0" gradientUnits="userSpaceOnUse" gradientTransform="matrix(1,0,0,-1,0,1.12029e-05)"><stop offset="0" style="stop-color:rgb(214,225,226);stop-opacity:1"/><stop offset="0" style="stop-color:rgb(214,225,226);stop-opacity:1"/><stop offset="1" style="stop-color:rgb(168,191,189);stop-opacity:1"/></linearGradient>
        <linearGradient id="_Linear12" x1="0" y1="0" x2="1" y2="0" gradientUnits="userSpaceOnUse" gradientTransform="matrix(1,0,0,-1,0,1.12028e-05)"><stop offset="0" style="stop-color:rgb(214,225,226);stop-opacity:1"/><stop offset="0" style="stop-color:rgb(214,225,226);stop-opacity:1"/><stop offset="1" style="stop-color:rgb(168,191,189);stop-opacity:1"/></linearGradient>
        <linearGradient id="_Linear13" x1="0" y1="0" x2="1" y2="0" gradientUnits="userSpaceOnUse" gradientTransform="matrix(1,0,0,-1,0,1.12018e-05)"><stop offset="0" style="stop-color:rgb(214,225,226);stop-opacity:1"/><stop offset="0" style="stop-color:rgb(214,225,226);stop-opacity:1"/><stop offset="1" style="stop-color:rgb(168,191,189);stop-opacity:1"/></linearGradient>
        <linearGradient id="_Linear14" x1="0" y1="0" x2="1" y2="0" gradientUnits="userSpaceOnUse" gradientTransform="matrix(1,0,0,-1,0,1.12023e-05)"><stop offset="0" style="stop-color:rgb(214,225,226);stop-opacity:1"/><stop offset="0" style="stop-color:rgb(214,225,226);stop-opacity:1"/><stop offset="1" style="stop-color:rgb(168,191,189);stop-opacity:1"/></linearGradient>
        <linearGradient id="_Linear15" x1="0" y1="0" x2="1" y2="0" gradientUnits="userSpaceOnUse" gradientTransform="matrix(1,0,0,-1,0,3.41862e-05)"><stop offset="0" style="stop-color:white;stop-opacity:1"/><stop offset="0" style="stop-color:white;stop-opacity:1"/><stop offset="1" style="stop-color:rgb(221,230,230);stop-opacity:1"/><stop offset="1" style="stop-color:rgb(221,230,230);stop-opacity:1"/></linearGradient>
    </defs>
</svg>
